svgs/sharp-regular/shelves-empty.svg

<svg xmlns="http://www.w3.org/2000/svg" viewBox="0 0 640 512"><!--! Font Awesome Pro 6.6.0 by @fontawesome - https://fontawesome.com License - https://fontawesome.com/license (Commercial License) Copyright 2024 Fonticons, Inc. --><path d="M48 24L48 0 0 0 0 24 0 160l0 24 0 24L0 416l0 24 0 24 0 24 0 24 48 0 0-24 0-24 544 0 0 24 0 24 48 0 0-24 0-24 0-24 0-24 0-208 0-24 0-24 0-136 0-24L592 0l0 24 0 136L48 160 48 24zm0 184l544 0 0 208L48 416l0-208z"/></svg>

<svg xmlns="http://www.w3.org/2000/svg" viewBox="0 0 640 512"><!--! Font Awesome Pro 6.4.0 by @fontawesome - https://fontawesome.com License - https://fontawesome.com/license (Commercial License) Copyright 2023 Fonticons, Inc. --><path d="M48 24V0H0V24 160v24 24V416v24 24 24 24H48V488 464H592v24 24h48V488 464 440 416 208 184 160 24 0H592V24 160H48V24zm0 184H592V416H48V208z"/></svg>
